static/logos/whimsical-glyph-color.svg

<svg width="50" height="37" viewBox="0 0 50 37" fill="none" xmlns="http://www.w3.org/2000/svg">
<path d="M17.0563 0.57052C17.8172 -0.0635431 18.8317 -0.0635456 19.5926 0.697333C21.3679 2.47271 23.2701 4.37489 25.0455 6.15027L22.3824 8.94016L18.9585 5.5162C18.5781 5.13577 18.0708 5.13578 17.5636 5.3894C17.5636 5.3894 17.5636 5.38939 17.4368 5.5162C13.3787 9.4474 9.44755 13.5054 5.38954 17.5634C5.0091 17.9439 4.88229 18.5779 5.26273 18.9584L5.38954 19.0852C9.19392 22.8896 12.9983 26.6939 16.8027 30.4983C17.0563 30.8788 17.4368 31.1324 17.8172 31.386C18.1976 31.5128 18.7049 31.386 18.9585 31.1324L22.2556 27.8353L24.9187 30.6251L19.8462 35.6976C19.4658 36.0781 19.0853 36.3317 18.7049 36.5853C17.944 36.839 17.1831 36.5853 16.6759 36.0781C11.3497 30.7519 5.89679 25.299 0.570659 19.9729C-0.19022 19.212 -0.19022 17.9439 0.570659 17.183C6.15042 11.4764 11.6034 6.02347 17.0563 0.57052Z" fill="#9187F6"/>
<path d="M30.498 0.570661C31.2589 -0.19022 32.527 -0.19022 33.2879 0.570661L49.3931 16.6759C49.9003 17.1832 50.154 17.944 49.9003 18.7049C49.6467 19.2122 49.2663 19.5926 48.8858 19.973L33.7951 35.1906C33.4147 35.571 33.0343 35.9514 32.527 36.2051C31.7661 36.4587 31.0052 36.2051 30.498 35.6978L25.045 30.3717L22.382 27.7086L14.266 19.5926C13.5051 18.8317 13.5051 17.5636 14.266 16.9295L22.2552 8.94029L25.045 6.15041C26.8204 4.24822 28.7226 2.47285 30.498 0.570661Z" fill="#8313DD"/>
</svg>

<svg xmlns="http://www.w3.org/2000/svg" width="86.486" height="64" fill="none" viewBox="0 0 50 37"><path fill="#9187F6" d="M17.056.57c.761-.634 1.776-.634 2.537.127l5.453 5.453-2.664 2.79-3.424-3.424c-.38-.38-.887-.38-1.394-.127l-.127.127c-4.058 3.931-7.99 7.99-12.047 12.047-.38.38-.508 1.015-.127 1.395l.127.127 11.413 11.413c.253.38.634.634 1.014.888.38.127.888 0 1.142-.254l3.297-3.297 2.663 2.79-5.073 5.073c-.38.38-.76.634-1.141.887-.761.254-1.522 0-2.03-.507L.572 19.973a1.99 1.99 0 0 1 0-2.79C6.15 11.476 11.603 6.023 17.056.571Z"/><path fill="#8313DD" d="M30.498.57a1.99 1.99 0 0 1 2.79 0l16.105 16.106c.507.507.761 1.268.507 2.029-.253.507-.634.888-1.014 1.268l-15.09 15.218c-.381.38-.762.76-1.269 1.014-.76.254-1.522 0-2.029-.507l-5.453-5.326-2.663-2.663-8.116-8.116c-.76-.761-.76-2.03 0-2.663l7.99-7.99 2.789-2.79c1.775-1.902 3.678-3.677 5.453-5.58Z"/></svg>
